icons/linear-new-tool-ruler-measure.svg

<svg xmlns="http://www.w3.org/2000/svg" width="32px" height="32px" viewBox="0 0 32 32" version="1.1">
    <title>linear-new-tool-ruler-measure</title>
    <g id="linear-new-tool-ruler-measure" stroke-width="1" fill-rule="evenodd">
        <path d="M4,29 C3.44771525,29 3,28.5522847 3,28 L3,4 C3,3.44771525 3.44771525,3 4,3 L13,3 C13.5522847,3 14,3.44771525 14,4 L14,18 L28,18 C28.5128358,18 28.9355072,18.3860402 28.9932723,18.8833789 L29,19 L29,28 C29,28.5522847 28.5522847,29 28,29 L4,29 Z M12,5 L5,5 L5,8 L7,8 C7.55228475,8 8,8.44771525 8,9 C8,9.55228475 7.55228475,10 7,10 L5,10 L5,14 L7,14 C7.55228475,14 8,14.4477153 8,15 C8,15.5522847 7.55228475,16 7,16 L5,16 L5,20 L7,20 C7.55228475,20 8,20.4477153 8,21 C8,21.5522847 7.55228475,22 7,22 L5,22 L5,27 L10,27 L10,25 C10,24.4477153 10.4477153,24 11,24 C11.5522847,24 12,24.4477153 12,25 L12,27 L16,27 L16,25 C16,24.4477153 16.4477153,24 17,24 C17.5522847,24 18,24.4477153 18,25 L18,27 L22,27 L22,25 C22,24.4477153 22.4477153,24 23,24 C23.5522847,24 24,24.4477153 24,25 L24,27 L27,27 L27,20 L13,20 C12.4871642,20 12.0644928,19.6139598 12.0067277,19.1166211 L12,19 L12,5 Z" id="&#24418;&#29366;" fill-rule="nonzero" />
    </g>
</svg>

<svg xmlns="http://www.w3.org/2000/svg" viewBox="0 0 32 32"><path fill="currentColor" d="M4 29a1 1 0 0 1-1-1V4a1 1 0 0 1 1-1h9a1 1 0 0 1 1 1v14h14a1 1 0 0 1 .993.883L29 19v9a1 1 0 0 1-1 1zm8-24H5v3h2a1 1 0 1 1 0 2H5v4h2a1 1 0 0 1 0 2H5v4h2a1 1 0 0 1 0 2H5v5h5v-2a1 1 0 0 1 2 0v2h4v-2a1 1 0 0 1 2 0v2h4v-2a1 1 0 0 1 2 0v2h3v-7H13a1 1 0 0 1-.993-.883L12 19z"/></svg>
